X:1
T:Tabler, CM
T:Tabler, CM
T:Ebenezer Hopkins Frost (1824-1866)
T:Public Domain Courtesy of the Cyber Hymnal™
C:Ebenezer Hopkins Frost (1824-1866)
Z:Public Domain
Z:Courtesy of the Cyber Hymnal™
%%score ( 1 2 ) ( 3 4 )
L:1/8
Q:1/4=130
M:3/4
K:G
V:1 treble 
V:2 treble 
V:3 bass 
V:4 bass 
V:1
 [GB]2 [GB]2 [GB]2 | (B2 c2) [GB]2 | (A2 B2) [FA]2 | G4 z2 | [FA]2 [FA]2 [FA]2 | (A2 d2) [Fc]2 | %6
 [GB]4 z2 | [Gd]2 [Gd]2 [Gd]2 | (d2 e2) [Gd]2 | B2 c2 [GB]2 | [FA]4 z2 | [EG]2 [EG]2 [EG]2 | %12
 (G2 A2) [DF]2 | [DG]4 z2 |] %14
V:2
 x6 | G4 x2 | F4 x2 | G4 x2 | x6 | F4 x2 | x6 | x6 | G4 x2 | G4 x2 | x6 | x6 | E4 x2 | x6 |] %14
V:3
 [G,D]2 [G,D]2 [G,D]2 | (D2 E2) [G,D]2 | (C2 D2) [D,C]2 | [G,B,]4 z2 | [D,D]2 [D,D]2 [D,D]2 | %5
 [D,D]4 [D,D]2 | [G,D]4 z2 | [G,B,]2 [G,B,]2 [G,B,]2 | (B,2 C2) [G,B,]2 | (D2 E2) [G,D]2 | %10
 [D,D]4 z2 | [E,B,]2 [E,B,]2 [E,B,]2 | C4 [D,A,]2 | [G,,B,]4 z2 |] %14
V:4
 x6 | G,4 x2 | D,4 x2 | x6 | x6 | x6 | x6 | x6 | G,4 x2 | G,4 x2 | x6 | x6 | (C,2 A,,2) x2 | x6 |] %14

